material/.icons/material/view-compact-outline.svg

<svg xmlns="http://www.w3.org/2000/svg" viewBox="0 0 24 24"><path d="M3 5v14h19V5H3m2 2h15v4H5V7m0 10v-4h4v4H5m6 0v-4h9v4h-9z"/></svg>

<?xml version="1.0" encoding="UTF-8"?><!DOCTYPE svg PUBLIC "-//W3C//DTD SVG 1.1//EN" "http://www.w3.org/Graphics/SVG/1.1/DTD/svg11.dtd"><svg xmlns="http://www.w3.org/2000/svg" xmlns:xlink="http://www.w3.org/1999/xlink" version="1.1" id="mdi-view-compact-outline" width="24" height="24" viewBox="0 0 24 24"><path d="M3,5V19H22V5H3M5,7H20V11H5V7M5,17V13H9V17H5M11,17V13H20V17H11Z" /></svg>
